images-mobile/svg/icon1.svg

<svg width="110" height="56" viewBox="0 0 110 56" fill="none" xmlns="http://www.w3.org/2000/svg">
<path fill-rule="evenodd" clip-rule="evenodd" d="M40.8537 4L47.6901 10.8401L35 10.8322V44.021H68.1707V31.3318L75 38.1647V4H40.8537ZM67.8706 30.5284L48.4859 11.1332H67.8706V30.5284ZM61.8518 39.1663H40.2489V16.8451H41.7759V37.6548H61.8518V39.1663ZM44.5942 50.0918L43.769 48.3951H43.0879L44.2842 50.6412V51.9498H44.9019V50.6412L46.0981 48.3951H45.4194L44.5942 50.0918ZM47.6362 48.3951H47.7827L49.1255 51.9498H48.481L48.1933 51.1172H46.8172L46.5303 51.9498H45.8882L47.2261 48.3951H47.3701H47.6362ZM46.9847 50.6314H48.0255L47.5045 49.1234L46.9847 50.6314ZM51.2804 50.0424C51.2537 50.0084 51.2279 49.9752 51.2031 49.9429C51.112 49.8225 51.0412 49.7061 50.9907 49.5938C50.9403 49.4799 50.915 49.3627 50.915 49.2422C50.915 49.0567 50.9533 48.8972 51.0298 48.7637C51.1063 48.6303 51.2145 48.5277 51.3545 48.4561C51.4945 48.3829 51.658 48.3462 51.8452 48.3462C52.0259 48.3462 52.1813 48.3829 52.3115 48.4561C52.4434 48.5277 52.5443 48.6229 52.6143 48.7417C52.6859 48.8606 52.7217 48.9908 52.7217 49.1324C52.7217 49.2447 52.7013 49.3472 52.6606 49.44C52.62 49.5328 52.5638 49.6174 52.4922 49.6939C52.4206 49.7704 52.3376 49.8428 52.2432 49.9112L51.9963 50.0909L52.7002 50.9216C52.7234 50.876 52.7444 50.8281 52.7632 50.7779C52.8234 50.6216 52.8535 50.4483 52.8535 50.2579H53.3613C53.3613 50.4304 53.3442 50.594 53.3101 50.7486C53.2775 50.9032 53.2246 51.0464 53.1514 51.1783C53.1217 51.2329 53.0881 51.2852 53.0505 51.3351L53.5713 51.9498H52.8901L52.6835 51.7068C52.5717 51.7916 52.4501 51.858 52.3188 51.9058C52.1463 51.9677 51.9624 51.9986 51.7671 51.9986C51.5311 51.9986 51.3268 51.9554 51.1543 51.8692C50.9818 51.7829 50.8483 51.6641 50.7539 51.5127C50.6611 51.3614 50.6147 51.188 50.6147 50.9927C50.6147 50.8479 50.6449 50.7209 50.7051 50.6119C50.7653 50.5012 50.8475 50.3986 50.9517 50.3042C51.0478 50.217 51.1574 50.1297 51.2804 50.0424ZM51.5721 50.3996L51.4985 50.4532C51.4123 50.5232 51.348 50.5907 51.3057 50.6558C51.265 50.7193 51.2381 50.7779 51.2251 50.8316C51.2121 50.8853 51.2056 50.9325 51.2056 50.9732C51.2056 51.0774 51.2275 51.1718 51.2715 51.2564C51.3171 51.341 51.383 51.4086 51.4692 51.459C51.5571 51.5079 51.6637 51.5323 51.7891 51.5323C51.9242 51.5323 52.0552 51.5022 52.1821 51.4419C52.2457 51.4109 52.3061 51.3736 52.3632 51.33L51.5721 50.3996ZM51.7127 49.7503L51.9307 49.6036C52.0332 49.5352 52.1064 49.4685 52.1504 49.4034C52.1943 49.3366 52.2163 49.2536 52.2163 49.1543C52.2163 49.0697 52.1838 48.9916 52.1187 48.92C52.0535 48.8484 51.9616 48.8125 51.8428 48.8125C51.7598 48.8125 51.6898 48.8321 51.6328 48.8711C51.5758 48.9086 51.5327 48.959 51.5034 49.0225C51.4757 49.0844 51.4619 49.1535 51.4619 49.23C51.4619 49.3033 51.4806 49.379 51.5181 49.4571C51.5555 49.5336 51.6068 49.6141 51.6719 49.6988C51.6851 49.7157 51.6987 49.7329 51.7127 49.7503ZM57.9316 50.7925H57.3213C57.3034 50.9471 57.266 51.0782 57.209 51.1856C57.1536 51.2914 57.0715 51.372 56.9624 51.4273C56.855 51.4826 56.7142 51.5103 56.54 51.5103C56.3968 51.5103 56.2739 51.4818 56.1714 51.4249C56.0688 51.3679 55.9842 51.2873 55.9175 51.1832C55.8524 51.079 55.8035 50.9545 55.771 50.8096C55.7401 50.6631 55.7246 50.5004 55.7246 50.3213V50.021C55.7246 49.8322 55.7417 49.6646 55.7759 49.5181C55.8117 49.37 55.8646 49.2455 55.9346 49.1446C56.0046 49.0437 56.0916 48.9672 56.1958 48.9151C56.3 48.863 56.422 48.837 56.562 48.837C56.7329 48.837 56.8713 48.8663 56.9771 48.9249C57.0828 48.9818 57.1626 49.0648 57.2163 49.1739C57.2716 49.2829 57.3075 49.4139 57.3237 49.5669H57.9341C57.9097 49.3293 57.8429 49.1185 57.7339 48.9346C57.6265 48.7507 57.4751 48.6067 57.2798 48.5025C57.0845 48.3983 56.8452 48.3462 56.562 48.3462C56.339 48.3462 56.138 48.3853 55.959 48.4634C55.7816 48.5415 55.6294 48.6547 55.5024 48.8028C55.3755 48.9493 55.2778 49.1259 55.2095 49.3326C55.1427 49.5393 55.1094 49.7704 55.1094 50.0259V50.3213C55.1094 50.5769 55.1419 50.808 55.207 51.0147C55.2738 51.2214 55.3698 51.398 55.4951 51.5445C55.6204 51.6893 55.771 51.8016 55.9468 51.8814C56.1226 51.9595 56.3203 51.9986 56.54 51.9986C56.8265 51.9986 57.0698 51.9465 57.27 51.8423C57.4702 51.7382 57.6257 51.5957 57.7363 51.4151C57.847 51.2328 57.9121 51.0253 57.9316 50.7925ZM61.3228 50.2701V50.0748C61.3228 49.8062 61.2869 49.5661 61.2153 49.3545C61.1453 49.1413 61.0452 48.9598 60.915 48.8101C60.7848 48.6587 60.6294 48.544 60.4487 48.4659C60.2681 48.3861 60.0679 48.3462 59.8481 48.3462C59.63 48.3462 59.4307 48.3861 59.25 48.4659C59.071 48.544 58.9155 48.6587 58.7837 48.8101C58.6535 48.9598 58.5526 49.1413 58.481 49.3545C58.4093 49.5661 58.3735 49.8062 58.3735 50.0748V50.2701C58.3735 50.5386 58.4093 50.7795 58.481 50.9927C58.5542 51.2059 58.6567 51.3874 58.7886 51.5372C58.9204 51.6869 59.0758 51.8016 59.2549 51.8814C59.4355 51.9595 59.6349 51.9986 59.853 51.9986C60.0728 51.9986 60.2729 51.9595 60.4536 51.8814C60.6343 51.8016 60.7889 51.6869 60.9175 51.5372C61.0477 51.3874 61.1478 51.2059 61.2178 50.9927C61.2878 50.7795 61.3228 50.5386 61.3228 50.2701ZM60.71 50.0699V50.2701C60.71 50.4686 60.6904 50.6444 60.6514 50.7974C60.6139 50.9504 60.5586 51.0798 60.4854 51.1856C60.4121 51.2898 60.3226 51.3687 60.2168 51.4224C60.111 51.4745 59.9897 51.5005 59.853 51.5005C59.7179 51.5005 59.5975 51.4745 59.4917 51.4224C59.3859 51.3687 59.2948 51.2898 59.2183 51.1856C59.1434 51.0798 59.0864 50.9504 59.0474 50.7974C59.0083 50.6444 58.9888 50.4686 58.9888 50.2701V50.0699C58.9888 49.8713 59.0083 49.6963 59.0474 49.545C59.0864 49.392 59.1426 49.2642 59.2158 49.1617C59.2907 49.0575 59.381 48.9794 59.4868 48.9273C59.5926 48.8736 59.7131 48.8467 59.8481 48.8467C59.9832 48.8467 60.1045 48.8736 60.2119 48.9273C60.3193 48.9794 60.4097 49.0575 60.4829 49.1617C60.5578 49.2642 60.6139 49.392 60.6514 49.545C60.6904 49.6963 60.71 49.8713 60.71 50.0699Z" fill="#8E8F99"/>
</svg>

<svg xmlns="http://www.w3.org/2000/svg" width="110" height="56" fill="none"><path fill="#8E8F99" fill-rule="evenodd" d="m40.854 4 6.836 6.84L35 10.832v33.189h33.17v-12.69L75 38.166V4H40.854ZM67.87 30.528 48.486 11.133H67.87v19.395Zm-6.02 8.638H40.25v-22.32h1.527v20.809h20.076v1.511ZM44.595 50.092l-.825-1.697h-.681l1.196 2.246v1.309h.618V50.64l1.196-2.246h-.679l-.825 1.697Zm3.042-1.697h.147l1.343 3.555h-.645l-.288-.833h-1.376l-.287.833h-.642l1.338-3.555H47.636Zm-.651 2.236h1.04l-.52-1.508-.52 1.508Zm4.295-.589a11.565 11.565 0 0 1-.077-.1 1.827 1.827 0 0 1-.212-.348.86.86 0 0 1-.076-.352c0-.185.038-.345.115-.478a.77.77 0 0 1 .325-.308c.14-.073.303-.11.49-.11.18 0 .336.037.467.11a.766.766 0 0 1 .349.984.894.894 0 0 1-.169.254 1.729 1.729 0 0 1-.249.217l-.247.18.704.83a1.436 1.436 0 0 0 .153-.664h.508c0 .173-.017.337-.05.492a1.53 1.53 0 0 1-.26.586l.52.615h-.68l-.207-.243a1.384 1.384 0 0 1-.365.199 1.621 1.621 0 0 1-.552.093c-.236 0-.44-.044-.613-.13a.971.971 0 0 1-.4-.356.974.974 0 0 1-.14-.52c0-.145.03-.272.091-.381.06-.11.142-.213.247-.308.096-.087.205-.174.328-.262Zm.292.358-.074.053a.915.915 0 0 0-.192.203.591.591 0 0 0-.034.6.514.514 0 0 0 .197.203.649.649 0 0 0 .32.073c.135 0 .266-.03.393-.09.064-.031.124-.068.181-.112l-.79-.93Zm.14-.65.219-.146a.793.793 0 0 0 .22-.2.444.444 0 0 0 .065-.25.354.354 0 0 0-.373-.342.363.363 0 0 0-.34.21.502.502 0 0 0 .015.435 1.441 1.441 0 0 0 .195.293Zm6.22 1.042h-.61a1.107 1.107 0 0 1-.113.394.553.553 0 0 1-.247.241.924.924 0 0 1-.422.083.749.749 0 0 1-.369-.085.707.707 0 0 1-.254-.242 1.193 1.193 0 0 1-.146-.373 2.371 2.371 0 0 1-.046-.489v-.3c0-.189.017-.356.05-.503.037-.148.09-.273.16-.373.07-.101.157-.178.26-.23a.81.81 0 0 1 .367-.078c.17 0 .31.03.415.088.106.057.186.14.24.249.055.109.09.24.107.393h.61a1.53 1.53 0 0 0-.2-.632 1.129 1.129 0 0 0-.454-.433 1.51 1.51 0 0 0-.718-.156c-.223 0-.424.04-.603.117-.177.078-.33.192-.457.34a1.533 1.533 0 0 0-.293.53c-.066.206-.1.437-.1.693v.295c0 .256.033.487.098.694.067.206.163.383.288.53.125.144.276.257.452.336.176.078.373.118.593.118.287 0 .53-.053.73-.157.2-.104.356-.246.466-.427.111-.182.176-.39.196-.623Zm3.39-.522v-.195c0-.269-.035-.509-.107-.72a1.56 1.56 0 0 0-.3-.545 1.275 1.275 0 0 0-.466-.344 1.47 1.47 0 0 0-.6-.12c-.219 0-.418.04-.599.12a1.303 1.303 0 0 0-.466.344 1.59 1.59 0 0 0-.303.544 2.239 2.239 0 0 0-.108.72v.196c0 .269.036.51.108.723.073.213.176.394.308.544a1.344 1.344 0 0 0 1.064.462c.22 0 .42-.04.6-.118.181-.08.336-.194.464-.344.13-.15.23-.331.3-.544.07-.214.106-.454.106-.723Zm-.612-.2v.2c0 .199-.02.374-.059.527a1.163 1.163 0 0 1-.166.389.73.73 0 0 1-.268.236.813.813 0 0 1-.364.079.807.807 0 0 1-.361-.079.77.77 0 0 1-.274-.236 1.163 1.163 0 0 1-.17-.389 2.14 2.14 0 0 1-.06-.527v-.2c0-.199.02-.374.06-.525.038-.153.095-.28.168-.383a.729.729 0 0 1 .27-.235.787.787 0 0 1 .362-.08c.135 0 .257.027.364.08.107.052.198.13.27.235.076.102.132.23.17.383.038.151.058.326.058.525Z" clip-rule="evenodd"/></svg>
